svg/regular/bx-vertical-center.svg

<svg xmlns="http://www.w3.org/2000/svg" width="24" height="24"><path d="M13 5V2h-2v3H8l4 4 4-4zm0 17v-3h3l-4-4-4 4h3v3zM3 11h3v2H3zm5 0h3v2H8zm5 0h3v2h-3zm5 0h3v2h-3z"/></svg>

<svg xmlns="http://www.w3.org/2000/svg" width="24" height="24" viewBox="0 0 24 24"><path d="M13 5L13 4.382 13 2 11 2 11 4.382 11 5 8 5 12 9 16 5zM13 22L13 19 16 19 12 15 8 19 11 19 11 22zM3 11H6V13H3zM8 11H11V13H8zM13 11H16V13H13zM18 11H21V13H18z"/></svg>
